src/images/opportunities-social-icon.svg

<svg width="77" height="58" viewBox="0 0 77 58" fill="none" xmlns="http://www.w3.org/2000/svg">
<path fill-rule="evenodd" clip-rule="evenodd" d="M54.556 47H57V12.777H54.556V47Z" fill="#66BB6A"/>
<path fill-rule="evenodd" clip-rule="evenodd" d="M75.2617 7.05267H63.8437C59.0327 7.05267 55.1307 10.9527 55.1307 15.7657V19.1307H55.1977C55.5407 14.6327 59.2587 11.0777 63.8437 11.0777H75.1947C75.2117 10.8567 75.2617 10.6437 75.2617 10.4167V7.05267Z" fill="#66BB6A"/>
<path fill-rule="evenodd" clip-rule="evenodd" d="M75.2617 7.05267H63.8437C59.0327 7.05267 55.1307 10.9527 55.1307 15.7657V19.1307H55.1977C55.5407 14.6327 59.2587 11.0777 63.8437 11.0777H75.1947C75.2117 10.8567 75.2617 10.6437 75.2617 10.4167V7.05267Z" stroke="white" stroke-width="2" stroke-linecap="round" stroke-linejoin="round"/>
<path fill-rule="evenodd" clip-rule="evenodd" d="M55.1973 19.1309H66.5483C71.1343 19.1309 74.8503 15.5759 75.1943 11.0779H63.8433C59.2593 11.0779 55.5413 14.6329 55.1973 19.1309Z" fill="#66BB6A"/>
<path fill-rule="evenodd" clip-rule="evenodd" d="M55.1973 19.1309H66.5483C71.1343 19.1309 74.8503 15.5759 75.1943 11.0779H63.8433C59.2593 11.0779 55.5413 14.6329 55.1973 19.1309Z" stroke="white" stroke-width="2" stroke-linecap="round" stroke-linejoin="round"/>
<path fill-rule="evenodd" clip-rule="evenodd" d="M55.1309 13.0781H43.7139C38.9019 13.0781 34.9999 9.17712 34.9999 4.36512V1.00012H35.0669C35.4099 5.49812 39.1279 9.05312 43.7139 9.05312H55.0639C55.0809 9.27412 55.1309 9.48712 55.1309 9.71412V13.0781Z" fill="#66BB6A"/>
<path fill-rule="evenodd" clip-rule="evenodd" d="M55.1309 13.0781H43.7139C38.9019 13.0781 34.9999 9.17712 34.9999 4.36512V1.00012H35.0669C35.4099 5.49812 39.1279 9.05312 43.7139 9.05312H55.0639C55.0809 9.27412 55.1309 9.48712 55.1309 9.71412V13.0781Z" stroke="white" stroke-width="2" stroke-linecap="round" stroke-linejoin="round"/>
<path fill-rule="evenodd" clip-rule="evenodd" d="M35.0669 1H46.4179C51.0029 1 54.7199 4.555 55.0639 9.053H43.7129C39.1279 9.053 35.4099 5.498 35.0669 1Z" fill="#66BB6A"/>
<path fill-rule="evenodd" clip-rule="evenodd" d="M35.0669 1H46.4179C51.0029 1 54.7199 4.555 55.0639 9.053H43.7129C39.1279 9.053 35.4099 5.498 35.0669 1Z" stroke="white" stroke-width="2" stroke-linecap="round" stroke-linejoin="round"/>
<path fill-rule="evenodd" clip-rule="evenodd" d="M57.3633 36.3242C57.3633 33.4452 55.2193 31.0162 52.3633 30.6602L37.2063 28.7652L1.00031 57.0002H29.0003L37.2063 46.4022" fill="#66BB6A"/>
<path d="M57.3633 36.3242V36.3242C57.3633 33.4452 55.2193 31.0162 52.3633 30.6602L39.3723 29.0362C37.9863 28.8622 36.5873 29.2482 35.4853 30.1072L1.00031 57.0002" stroke="white" stroke-width="2" stroke-linecap="round" stroke-linejoin="round"/>
<path fill-rule="evenodd" clip-rule="evenodd" d="M66.9766 28.7656L62.8436 29.2566C62.3106 29.3206 61.7976 29.4956 61.3386 29.7736L56.5806 32.6476V38.9996H60.9996L66.9766 28.7656Z" fill="#66BB6A"/>
<path fill-rule="evenodd" clip-rule="evenodd" d="M66.9766 28.7656L62.8436 29.2566C62.3106 29.3206 61.7976 29.4956 61.3386 29.7736L56.5806 32.6476V38.9996H60.9996L66.9766 28.7656Z" stroke="white" stroke-width="2" stroke-linecap="round" stroke-linejoin="round"/>
<path fill-rule="evenodd" clip-rule="evenodd" d="M44.7651 36.3242H59.8831L68.5301 27.6762C69.3851 26.8222 70.6891 26.6102 71.7691 27.1502L75.0001 28.7652L59.8831 46.4022H37.2061L29.0001 57.0002" fill="#66BB6A"/>
<path d="M44.7651 36.3242H59.8831L68.5301 27.6762C69.3851 26.8222 70.6891 26.6102 71.7691 27.1502L75.0001 28.7652L59.8831 46.4022H37.2061L29.0001 57.0002" stroke="white" stroke-width="2" stroke-linecap="round" stroke-linejoin="round"/>
</svg>

<svg width="77" height="58" fill="none" xmlns="http://www.w3.org/2000/svg"><path fill-rule="evenodd" clip-rule="evenodd" d="M54.556 47H57V12.777h-2.444V47z" fill="#66BB6A"/><path fill-rule="evenodd" clip-rule="evenodd" d="M75.262 7.053H63.844a8.713 8.713 0 0 0-8.713 8.713v3.365h.067c.343-4.498 4.06-8.053 8.646-8.053h11.35c.018-.221.068-.434.068-.661V7.053z" fill="#66BB6A"/><path clip-rule="evenodd" d="M75.262 7.053H63.844a8.713 8.713 0 0 0-8.713 8.713v3.365h.067c.343-4.498 4.06-8.053 8.646-8.053h11.35c.018-.221.068-.434.068-.661V7.053z" stroke="#fff" stroke-width="2" stroke-linecap="round" stroke-linejoin="round"/><path fill-rule="evenodd" clip-rule="evenodd" d="M55.197 19.13h11.351c4.586 0 8.302-3.554 8.646-8.052h-11.35c-4.585 0-8.303 3.555-8.647 8.053z" fill="#66BB6A"/><path clip-rule="evenodd" d="M55.197 19.13h11.351c4.586 0 8.302-3.554 8.646-8.052h-11.35c-4.585 0-8.303 3.555-8.647 8.053z" stroke="#fff" stroke-width="2" stroke-linecap="round" stroke-linejoin="round"/><path fill-rule="evenodd" clip-rule="evenodd" d="M55.13 13.078H43.715A8.714 8.714 0 0 1 35 4.365V1h.067c.343 4.498 4.06 8.053 8.647 8.053h11.35c.017.221.067.434.067.661v3.364z" fill="#66BB6A"/><path clip-rule="evenodd" d="M55.13 13.078H43.715A8.714 8.714 0 0 1 35 4.365V1h.067c.343 4.498 4.06 8.053 8.647 8.053h11.35c.017.221.067.434.067.661v3.364z" stroke="#fff" stroke-width="2" stroke-linecap="round" stroke-linejoin="round"/><path fill-rule="evenodd" clip-rule="evenodd" d="M35.067 1h11.35c4.586 0 8.303 3.555 8.647 8.053H43.713c-4.585 0-8.303-3.555-8.646-8.053z" fill="#66BB6A"/><path clip-rule="evenodd" d="M35.067 1h11.35c4.586 0 8.303 3.555 8.647 8.053H43.713c-4.585 0-8.303-3.555-8.646-8.053z" stroke="#fff" stroke-width="2" stroke-linecap="round" stroke-linejoin="round"/><path fill-rule="evenodd" clip-rule="evenodd" d="M57.363 36.324a5.707 5.707 0 0 0-5-5.664l-15.157-1.895L1 57h28l8.206-10.598" fill="#66BB6A"/><path d="M57.363 36.324a5.707 5.707 0 0 0-5-5.664l-12.99-1.624a5.259 5.259 0 0 0-3.888 1.071L1 57" stroke="#fff" stroke-width="2" stroke-linecap="round" stroke-linejoin="round"/><path fill-rule="evenodd" clip-rule="evenodd" d="M66.977 28.766l-4.133.49a3.77 3.77 0 0 0-1.505.518l-4.758 2.874V39H61l5.977-10.234z" fill="#66BB6A"/><path clip-rule="evenodd" d="M66.977 28.766l-4.133.49a3.77 3.77 0 0 0-1.505.518l-4.758 2.874V39H61l5.977-10.234z" stroke="#fff" stroke-width="2" stroke-linecap="round" stroke-linejoin="round"/><path fill-rule="evenodd" clip-rule="evenodd" d="M44.765 36.324h15.118l8.647-8.648a2.807 2.807 0 0 1 3.24-.526L75 28.765 59.883 46.402H37.206L29 57" fill="#66BB6A"/><path d="M44.765 36.324h15.118l8.647-8.648a2.807 2.807 0 0 1 3.24-.526L75 28.765 59.883 46.402H37.206L29 57" stroke="#fff" stroke-width="2" stroke-linecap="round" stroke-linejoin="round"/></svg>
